package/contents/images/gym-light.svg

<?xml version="1.0" encoding="UTF-8" standalone="no"?>
<svg xmlns="http://www.w3.org/2000/svg" version="1.1" xmlns:cc="http://creativecommons.org/ns#" xmlns:dc="http://purl.org/dc/elements/1.1/" height="22" viewBox="0 0 21.999999 21.999999" width="22" xmlns:rdf="http://www.w3.org/1999/02/22-rdf-syntax-ns#">
<defs>
<style id="current-color-scheme" type="text/css">.ColorScheme-Text {
        color:#f2f2f2;
      }</style>
</defs>
<g transform="translate(0 -1.03e3)">
<g transform="matrix(.422 0 0 .422 228 597)">
<g transform="translate(-2.37 2.37)">
<path style="text-rendering:auto;color-rendering:auto;color:#000000;isolation:auto;mix-blend-mode:normal;shape-rendering:auto;solid-color:#000000;image-rendering:auto" d="m5 5v2h-1v2h-1v3h1v2h1v2h2v-4h8v4h2v-2h1v-2h1v-3h-1v-2h-1v-2h-2v4h-8v-4h-2zm2 5h8v1h-8v-1z" transform="matrix(2.37 0 0 2.37 -537 1.02e3)" fill="#f2f2f2"/>
</g>
</g>
</g>
</svg>

<?xml version="1.0" encoding="UTF-8" standalone="no"?>
<!-- Created with Inkscape (http://www.inkscape.org/) -->

<svg:svg
   xmlns:dc="http://purl.org/dc/elements/1.1/"
   xmlns:cc="http://creativecommons.org/ns#"
   xmlns:rdf="http://www.w3.org/1999/02/22-rdf-syntax-ns#"
   xmlns:svg="http://www.w3.org/2000/svg"
   xmlns:sodipodi="http://sodipodi.sourceforge.net/DTD/sodipodi-0.dtd"
   xmlns:inkscape="http://www.inkscape.org/namespaces/inkscape"
   width="22"
   height="22"
   viewBox="0 0 21.999999 21.999999"
   id="svg7888"
   version="1.1"
   inkscape:version="0.91 r13725"
   sodipodi:docname="philips-hue-room-gym.svg"
   inkscape:export-filename="/home/jamboarder/Projects/KDE VDG/Phillips Hue Plasmoid/philips-hue-bulb-fill.png"
   inkscape:export-xdpi="523.63635"
   inkscape:export-ydpi="523.63635">
  <svg:defs
     id="defs7890">
    <svg:linearGradient
       id="linearGradient4178">
      <svg:stop
         id="stop4180"
         offset="0"
         style="stop-color:#3c3c3c;stop-opacity:0.24313726" />
      <svg:stop
         id="stop4182"
         offset="1"
         style="stop-color:#232629;stop-opacity:0.01176471" />
    </svg:linearGradient>
    <svg:linearGradient
       id="linearGradient4172">
      <svg:stop
         id="stop4174"
         offset="0"
         style="stop-color:#252525;stop-opacity:0.24313726" />
      <svg:stop
         id="stop4176"
         offset="1"
         style="stop-color:#232629;stop-opacity:0.01176471" />
    </svg:linearGradient>
    <svg:linearGradient
       id="linearGradient4165">
      <svg:stop
         id="stop4167"
         offset="0"
         style="stop-color:#1d2023;stop-opacity:0.24313726" />
      <svg:stop
         id="stop4169"
         offset="1"
         style="stop-color:#232629;stop-opacity:0.00392157" />
    </svg:linearGradient>
    <svg:linearGradient
       id="linearGradient7348">
      <svg:stop
         style="stop-color:#232629;stop-opacity:0.20588236"
         offset="0"
         id="stop7350" />
      <svg:stop
         style="stop-color:#232629;stop-opacity:0.01176471"
         offset="1"
         id="stop7352" />
    </svg:linearGradient>
    <style
       type="text/css"
       id="current-color-scheme">
        .ColorScheme-Text {
        color:#f2f2f2;
      }
    </style>
  </svg:defs>
  <sodipodi:namedview
     id="base"
     pagecolor="#ffffff"
     bordercolor="#666666"
     borderopacity="1.0"
     inkscape:pageopacity="0"
     inkscape:pageshadow="2"
     inkscape:zoom="16"
     inkscape:cx="22.403335"
     inkscape:cy="0.27971523"
     inkscape:document-units="px"
     inkscape:current-layer="g4243"
     showgrid="true"
     units="px"
     inkscape:snap-bbox="true"
     inkscape:bbox-nodes="true"
     inkscape:snap-intersection-paths="true"
     inkscape:snap-midpoints="true"
     inkscape:object-paths="true"
     inkscape:object-nodes="true"
     inkscape:snap-nodes="true"
     showguides="true"
     inkscape:guide-bbox="true"
     inkscape:window-width="1365"
     inkscape:window-height="1011"
     inkscape:window-x="555"
     inkscape:window-y="0"
     inkscape:window-maximized="0"
     inkscape:snap-global="true"
     inkscape:snap-smooth-nodes="true">
    <inkscape:grid
       type="xygrid"
       id="grid7896"
       empspacing="4"
       originx="0"
       originy="0"
       color="#0000ff"
       opacity="0.12156863" />
    <sodipodi:guide
       position="-4.9999998,19.999999"
       orientation="0,1"
       id="guide8012" />
    <sodipodi:guide
       position="18.999999,5.9999997"
       orientation="1,0"
       id="guide8018" />
    <sodipodi:guide
       position="2.9999999,2.9999999"
       orientation="0,1"
       id="guide8022" />
    <sodipodi:guide
       position="2.9999999,5.9999997"
       orientation="1,0"
       id="guide8024" />
    <sodipodi:guide
       position="10.999999,0"
       orientation="1,0"
       id="guide4302" />
  </sodipodi:namedview>
  <svg:metadata
     id="metadata7893">
    <rdf:RDF>
      <cc:Work
         rdf:about="">
        <dc:format>image/svg+xml</dc:format>
        <dc:type
           rdf:resource="http://purl.org/dc/dcmitype/StillImage" />
        <dc:title />
      </cc:Work>
    </rdf:RDF>
  </svg:metadata>
  <svg:g
     inkscape:label="Layer 1"
     inkscape:groupmode="layer"
     id="layer1"
     transform="translate(0,-1030.3622)">
    <svg:g
       id="g7642"
       transform="matrix(0.42207789,0,0,0.42207789,227.63636,597.49519)">
      <svg:g
         id="g4243"
         transform="translate(-2.3692258,2.3690477)">
        <svg:path
           style="color:#000000;clip-rule:nonzero;display:inline;overflow:visible;visibility:visible;opacity:1;isolation:auto;mix-blend-mode:normal;color-interpolation:sRGB;color-interpolation-filters:linearRGB;solid-color:#000000;solid-opacity:1;fill:#f2f2f2;fill-opacity:1;fill-rule:nonzero;stroke:none;stroke-width:1;stroke-linecap:butt;stroke-linejoin:miter;stroke-miterlimit:4;stroke-dasharray:1, 1;stroke-dashoffset:0;stroke-opacity:0.24861881;color-rendering:auto;image-rendering:auto;shape-rendering:auto;text-rendering:auto;enable-background:accumulate"
           d="M 5 5 L 5 7 L 4 7 L 4 9 L 3 9 L 3 12 L 4 12 L 4 14 L 5 14 L 5 16 L 7 16 L 7 12 L 15 12 L 15 16 L 17 16 L 17 14 L 18 14 L 18 12 L 19 12 L 19 9 L 18 9 L 18 7 L 17 7 L 17 5 L 15 5 L 15 9 L 7 9 L 7 5 L 5 5 z M 7 10 L 15 10 L 15 11 L 7 11 L 7 10 z "
           transform="matrix(2.3692307,0,0,2.3692307,-536.95388,1023.1929)"
           id="rect4154" />
      </svg:g>
    </svg:g>
  </svg:g>
</svg:svg>
